!!!!SEGMENT: pl-wtm--r-1493_stefani-jozef--lec-ptaszyno-lec.krn
!!!cenid: 18xx:2229
!!!COM: Stefani, Józef
!!!COM-rismID: pe30024097
!!!CDT: 1800/04/16-1876/03/19
!!!CNT: Polish
!!!OTL: Leć ptaszyno, leć
!!!PDT:
!!!AGN:
!!!SMS-siglum: PL-Wtm
!!!SMS-shelfmark: R 1493
!!!SMS-shelfwork: W
!!!SMS-variant:
!!!SMS-altvar:
!!!NIFC-rismSourceID: 1001119961
!!!NIFC-islandoraID: pl-wtm:26068
!!!URL-pdf-islandora: https://repozytorium.nifc.pl/islandora/object/pl-wtm%3A26068/datastream/PDF/view
!!!URL-scan: https://polish.musicsources.pl/pl/lokalizacje/galeria/rekopisy/6305 @EN{Scan on Polish Music Sources Website} @PL{Skany w portalu Dziedzictwo Muzyki Polskiej w otwartym dostępie}
!!!ONB-nifc:
!!!OMD: Allegro.
!!!AIN: 1 empty 1 vox
!!!key:
**kern	**kern	**dynam	**kern	**text	**dynam
*part2	*part2	*part2	*part1	*part1	*part1
*staff3	*staff2	*	*staff1	*staff1	*
*Iempty	*Iforte	*	*Ivox	*	*
*	*I"Fortepian	*	*I"Spiew	*	*
*clefF4	*clefG2	*	*clefG2	*	*
*k[]	*k[]	*	*k[]	*	*
*a:	*a:	*	*a:	*	*
*M2/4	*M2/4	*	*M2/4	*	*
*all\right	*all\right	*	*all\right	*	*
=1	=1	=1	=1	=1	=1
!	!	!LO:DY:rj	!	!	!
8E\L	(16e/LL	f	2r	.	.
.	16f#X/	.	.	.	.
8BJ 8G#X\	16g#X/	.	.	.	.
.	16a/JJ	.	.	.	.
8E\L	16b\LL	.	.	.	.
.	16cc#X\	.	.	.	.
8BJ 8G#\	16dd#X\	.	.	.	.
.	16ee\JJ)	.	.	.	.
=2	=2	=2	=2	=2	=2
8D\L	(16e/LL	.	2r	.	.
.	16f#X/	.	.	.	.
8BJ 8G#X 8E\	16g#X/	.	.	.	.
.	16a/JJ	.	.	.	.
*rep	*	*	*	*	*
8D\L	16b\LL	.	.	.	.
.	16cc#X\	.	.	.	.
8BJ 8G# 8E\	16dd#X\	.	.	.	.
.	16ee\JJ)	.	.	.	.
*Xrep	*	*	*	*	*
=3	=3	=3	=3	=3	=3
8C#X\L	(16a\LL	.	2r	.	.
.	16b\	.	.	.	.
8AJ 8E\	16cc#X\	.	.	.	.
.	16dd\JJ	.	.	.	.
*rep	*	*	*	*	*
8C#\L	16ee\LL	.	.	.	.
.	16ff#X\	.	.	.	.
8AJ 8E\	16gg#X\	.	.	.	.
.	16aa\JJ)	.	.	.	.
*Xrep	*	*	*	*	*
!!LO:LB:g=original
=4	=4	=4	=4	=4	=4
8D\L	(16gg#X\LL	.	2ryy	.	.
.	16ff#X\	.	.	.	.
8BJ 8F#X\	16ee#X\	.	.	.	.
.	16ff#\JJ	.	.	.	.
8D\L	16ddd\LL	.	.	.	.
.	16bb\	.	.	.	.
8BJ 8F#\	16ff#\	.	.	.	.
.	16ffn\JJ)	.	.	.	.
=5	=5	=5	=5	=5	=5
8E\L	(16ee\LL	.	2ryy	.	.
.	16ff#X\	.	.	.	.
8c#XJ 8A\	16gg#X\	.	.	.	.
.	16aa\JJ	.	.	.	.
*rep	*	*	*	*	*
8E\L	16bb\LL	.	.	.	.
.	16ccc#X\	.	.	.	.
8c#J 8A\	16ddd\	.	.	.	.
.	16eee\JJ)	.	.	.	.
*Xrep	*	*	*	*	*
=6	=6	=6	=6	=6	=6
8E\L	(16fff#X\LL	.	2ryy	.	.
.	16eee\	.	.	.	.
8dJ 8B 8G#X\	16fff#\	.	.	.	.
.	16eee\JJ	.	.	.	.
*rep	*	*	*	*	*
8E\L	16fff#\LL	.	.	.	.
.	16eee\	.	.	.	.
8dJ 8B 8G#\	16ddd\	.	.	.	.
.	16bb\JJ	.	.	.	.
*Xrep	*	*	*	*	*
=7	=7	=7	=7	=7	=7
8c 8A\	8aa\)	.	2r	.	.
8AL 8AA/	8aaL 8cc#X 8a\	.	.	.	.
8Fn 8FFn/	8cccn 8dd#X 8ccn\	.	.	.	.
8FJ 8FF/	8dd#J 8b 8a\	.	.	.	.
!!LO:LB:g=original
=8	=8	=8	=8	=8	=8
8E 8EE/	8ee 8b 8g#X/	.	2r	.	.
8DL 8DD/	8r	.	.	.	.
8C 8CC/	4r	.	.	.	.
!LO:TX:a:t=V&colon; S&colon;	!	!	!	!	!
8BBJ 8BBB/	.	.	.	.	.
!!LO:PB:g=original
=9	=9	=9	=9	=9	=9
!	!	!LO:DY:rj	!	!	!
8AA/	8r	p	8r	.	.
8r	8cc 8a 8e/	.	16cc\	Leć	.
.	.	.	16cc\	pta-	.
8A\	8r	.	8b\	-szy-	.
8r	8a 8e 8c/	.	8a\	-no	.
=10	=10	=10	=10	=10	=10
*	*	*	*2\right	*	*
!	!	!LO:DY:rj	!	!	!
8E\L	(16ee\LL	f	2ee\	leć	.
.	16ff#X\	.	.	.	.
8eJ 8B 8G#X\	16gg#X\	.	.	.	.
.	16aa\JJ	.	.	.	.
*rep	*	*	*	*	*
8E\L	16bb\LL	.	.	.	.
.	16ccc#X\	.	.	.	.
8eJ 8B 8G#\	16ddd#X\	.	.	.	.
.	16eee\JJ)	.	.	.	.
*Xrep	*	*	*	*	*
=11	=11	=11	=11	=11	=11
!	!	!LO:DY:rj	!	!	!
8A\	8r	p	8r	.	.
8r	8a 8e 8c/	.	16cc\	Gdy-	.
.	.	.	16a/	-by	.
8AA/	8r	.	8b\	twój	.
8r	8cc 8a 8e/	.	8cc\	lot	.
=12	=12	=12	=12	=12	=12
!	!	!LO:DY:rj	!	!	!
8E\L	(16ee\LL	f	4e/	mieć	.
.	16ff#X\	.	.	.	.
8eJ 8B 8G#X\	16gg#X\	.	.	.	.
.	16aa\JJ	.	.	.	.
*rep	*	*	*	*	*
8E\L	16bb\LL	.	4r	.	.
.	16ccc#X\	.	.	.	.
8eJ 8B 8G#\	16ddd#X\	.	.	.	.
.	16eee\JJ)	.	.	.	.
*Xrep	*	*	*	*	*
!!LO:LB:g=original
=13	=13	=13	=13	=13	=13
8D 8DD/	8r	f	8f#X/	Bę-	.
!	!	!LO:DY:rj	!	!	!
8r	8g 8f 8B/	p	8g/	-dziem	.
!	!	!LO:DY:rj	!	!	!
.	.	p	.	.	.
.	.	.	(8qb/	.	.
8GG 8GGG/	8r	.	8a/)	pios-	.
8r	8f 8d 8B 8G/	.	8g/	-nki	.
=14	=14	=14	=14	=14	=14
8C 8CC/	8r	.	2ee\	snuć	.
8r	8e 8c 8G/	.	.	.	.
8C 8CC/	8r	.	.	.	.
8r	8e 8c 8G/	.	.	.	.
=15	=15	=15	=15	=15	=15
8F 8FF\	8r	.	8dd\	Ja	.
8r	8f 8d 8A/	.	8a/	ci	.
.	.	.	8qcc/	.	.
8G 8GG\	8r	.	8b/	my-	.
8r	8f 8d 8B/	.	8g/	-śli	.
=16	=16	=16	=16	=16	=16
8C 8CC/	8r	.	2cc\	dam	.
8r	8e 8c 8G/	.	.	.	.
8C 8CC/	8r	.	.	.	.
8r	8e 8c 8G/	.	.	.	.
=17	=17	=17	=17	=17	=17
8E 8EE/	8r	.	8b\	Ty	.
8r	8g#X 8e 8d 8B/	.	8b\	nad	.
.	.	.	(8qdd/	.	.
8E 8EE/	8r	.	8cc\)	Wi-	.
8r	8g# 8e 8d 8B/	.	8b\	-słą	.
!!LO:LB:g=original
=18	=18	=18	=18	=18	=18
8A 8AA\	8r	.	2a/	tam,	.
8r	8a 8e 8c/	.	.	.	.
8A 8AA\	8r	.	.	.	.
8r	8a 8e 8c/	.	.	.	.
=19	=19	=19	=19	=19	=19
8F 8FF/	8r	.	8a/	mo-	.
!	!	!	!LO:TX:a:i:t=rall&colon;	!	!
8r	8a 8d 8A/	.	(16b/LL	-iej	.
.	.	.	16a/JJ)	.	.
8F 8FF/	8r	.	8g#X/	Pol-	.
8r	8a 8d 8A/	.	8a/	-sce	.
=20	=20	=20	=20	=20	=20
8E 8EE/	8g#X 8e 8B/	.	8b\	nuć	.
8r	8r	.	((32dd#X\LLL	Ah!	.
.	.	.	32ee\)	.	.
.	.	.	32ff\	.	.
.	.	.	32ee\JJJ	.	.
4r;	4r;	.	8.ff#X;\L)	.	.
.	.	.	16ee\Jk	.	.
=21||	=21||	=21||	=21||	=21||	=21||
*k[f#c#g#]	*k[f#c#g#]	*	*k[f#c#g#]	*	*
*A:	*A:	*	*A:	*	*
!	!	!	!LO:TX:b:i:t=dolce	!	!
!	!	!	!LO:TX:a:Bi:t=moderato	!	!
8A 8AA\	8r	.	8cc#\	Swieć	.
!	!	!	!LO:TX:t=P:problem=obiegnik z kreską	!	!
8r	8aL 8c#/	.	8cc#sS\	sło-	.
8E\L	8cc# 8e/	.	8ee\	-necz-	.
8G#\J	8bJ 8d/	.	8dd\	-ko	.
!!LO:LB:g=original
=22	=22	=22	=22	=22	=22
8A 8AA\	8r	.	2cc#\	świeć	.
8r	8a 8e 8c#/	.	.	.	.
8A 8AA\	8r	.	.	.	.
8r	8a 8e 8c#/	.	.	.	.
=23	=23	=23	=23	=23	=23
8A 8AA\	8r	.	8dd\	Gdy-	.
8r	8a 8f# 8d/	.	8dd\	-by	.
8A 8AA\	8r	.	8.ee\	Twój	.
8r	8a 8f# 8d/	.	.	.	.
.	.	.	16ff#\	blask	.
=24	=24	=24	=24	=24	=24
!	!	!	!	!	!LO:HP:a
8E 8EE/	8r	.	(4.b\	mieć	<
8r	8g# 8e 8B/	.	.	.	.
8E 8EE/	8r	.	.	.	.
8r	8g# 8e 8B#X/	.	8b#X\)	.	[[
=25	=25	=25	=25	=25	=25
8A 8AA\	8r	.	8cc#\	Na	.
8r	8a 8e 8c#/	.	(16dd\LL	ma-	.
.	.	.	16cc#\JJ)	.	.
8F# 8FF#/	8r	.	8b\	-tecz-	.
8r	8a 8f# 8c#/	.	8a/	-ki	.
=26	=26	=26	=26	=26	=26
8E 8EE/	8r	.	2b\	skroń	.
8r	8b 8g# 8e/	.	.	.	.
8E 8EE/	8r	.	.	.	.
8r	8b 8g# 8e/	.	.	.	.
=27	=27	=27	=27	=27	=27
8BB/	8r	.	8b\	Twym	.
8r	8a 8d#X 8B/	.	8f#/	pro-	.
8D#X\	8r	.	8f#/	-my-	.
8r	8a 8f# 8B/	.	8a/	-kiem	.
!!LO:PB:g=original
=28	=28	=28	=28	=28	=28
!	!	!LO:DY:rj	!	!	!
8E\L	16g#LL 16e 16B/	f	(4g#/	wioń	.
.	(16b/	.	.	.	.
8BJ 8G#\	16a#X/	.	.	.	.
.	16b/JJ	.	.	.	.
8E\L	16cc#/LL	.	4b/)	.	.
.	16b/	.	.	.	.
8BJ 8G#\	16g#/	.	.	.	.
.	16e/JJ)	.	.	.	.
=29	=29	=29	=29	=29	=29
8BB/	8r	p	8b/	W_ser-	.
8r	8a 8d#X 8B/	.	8f#/	-cu	.
8D#X\	8r	.	8f#/	wia-	.
8r	8a 8f# 8B/	.	8a/	-rę	.
=30	=30	=30	=30	=30	=30
!	!	!LO:DY:rj	!	!	!
8E\L	16g#LL 16e 16B/	f	8g#/	wznieć	.
.	(16b/	.	.	.	.
8BJ 8G#\	16a#X/	.	8r	.	.
.	16b/JJ	.	.	.	.
*rep	*	*	*	*	*
!	!LO:TX:t=P:problem=mixed beam	!	!	!	!
8E\L	16cc#/LL	.	8r	.	.
.	16b/	.	.	.	.
8BJ 8G#\	16gg#\	.	8r	.	.
.	16ee\JJ)	.	.	.	.
*Xrep	*	*	*	*	*
=31	=31	=31	=31	=31	=31
4A 4AA\	8r	.	8cc#\	I	.
.	8cc#L 8a 8e/	.	8cc#\	na-	.
4B 4BB\	8b 8g# 8e/	.	8b\	-dzie-	.
.	8dd#XJ 8a 8f#/	.	8dd#X\	-ią	.
=32	=32	=32	=32	=32	=32
8B 8E\	16eeLL 16g#|\	.	8ee\	świeć.	.
.	(16ee\	.	.	.	.
8r	16dd#X\	.	8r	.	.
.	16ee\JJ	.	.	.	.
4r	16ff#\LL	.	8r	.	.
.	16ee\	.	.	.	.
.	16ddn\	.	8r	.	.
.	16b\JJ)	.	.	.	.
!!LO:LB:g=original
=33||	=33||	=33||	=33||	=33||	=33||
*k[]	*k[]	*	*k[]	*	*
*a:	*a:	*	*a:	*	*
!	!	!LO:DY:rj	!LO:TX:a:i:t=a tempo Imo	!	!
8A 8AA\	8r	p	8cc\	Bież	.
8r	8cc 8a 8e/	.	8cc\	wie-	.
8A 8AA\	8r	.	8b\	-trzy-	.
8r	8a 8e 8c/	.	8a/	-ku	.
=34	=34	=34	=34	=34	=34
!	!	!LO:DY:rj	!	!	!
8E\L	(16ee\LL	f	(4..ee\	bież	.
.	16ff#X\	.	.	.	.
8eJ 8B 8G#X\	16gg#X\	.	.	.	.
.	16aa\JJ	.	.	.	.
*rep	*	*	*	*	*
8E\L	16bb\LL	.	.	.	.
.	16ccc#X\	.	.	.	.
8eJ 8B 8G#\	16ddd#X\	.	.	.	.
.	16eee\JJ)	.	16dd\)	.	.
*Xrep	*	*	*	*	*
=35	=35	=35	=35	=35	=35
!	!	!LO:DY:rj	!	!	!
8A 8AA\	8r	p	8cc\	Ty	.
8r	8a 8e 8c/	.	(16g#X/LL	mą	.
.	.	.	16a/JJ)	.	.
8A 8AA\	8r	.	8b\	ża-	.
8r	8cc 8a 8e/	.	8cc\	-łość	.
.	.	f	.	.	.
=36	=36	=36	=36	=36	=36
8E\L	(16ee\LL	.	4e/	wiesz	.
.	16ff#X\	.	.	.	.
8eJ 8B 8G#X\	16gg#X\	.	.	.	.
.	16aa\JJ	.	.	.	.
*rep	*	*	*	*	*
8E\L	16bb\LL	.	4r	.	.
.	16ccc#X\	.	.	.	.
8eJ 8B 8G#\	16ddd#X\	.	.	.	.
.	16eee\JJ)	.	.	.	.
*Xrep	*	*	*	*	*
!!LO:LB:g=original
=37	=37	=37	=37	=37	=37
!	!	!LO:DY:rj	!	!	!
8D 8DD/	8r	f	8f#X/	Po-	.
8r	8g 8f 8B/	.	8g/	-śród	.
.	.	.	8qb/	.	.
!	!	!LO:DY:rj	!	!	!
8GG 8GGG/	8r	p	8a/	gęs-	.
8r	8f 8d 8B 8G/	.	8g/	-tej	.
=38	=38	=38	=38	=38	=38
8C 8CC/	8r	.	2ee\	mgły	.
8r	8e 8c 8G/	.	.	.	.
8C 8CC/	8r	.	.	.	.
8r	8e 8c 8G/	.	.	.	.
=39	=39	=39	=39	=39	=39
8F 8FF\	8r	.	8dd\	Dla	.
8r	8f 8d 8A/	.	8a/	Oj-	.
.	.	.	8qcc/	.	.
8G 8GG\	8r	.	8b/	-czy-	.
8r	8f 8d 8B/	.	8g/	-zny	.
=40	=40	=40	=40	=40	=40
8C 8CC/	8r	.	2cc\	nieść	.
8r	8e 8c 8G/	.	.	.	.
8C 8CC/	8r	.	.	.	.
8r	8e 8c 8G/	.	.	.	.
=41	=41	=41	=41	=41	=41
8E 8EE/	8r	.	8b\	Me-	.
8r	8g#X 8e 8B/	.	8b\	-go	.
.	.	.	8qdd/	.	.
8E 8EE/	8r	.	8cc\	ser-	.
8r	8g# 8e 8B/	.	8b\	-ca	.
!!LO:LB:g=original
=42	=42	=42	=42	=42	=42
8A 8AA\	8r	.	4.a/	cześć	.
8r	8a 8e 8c/	.	.	.	.
!	!	!LO:DY:b=2	!	!	!
8F 8FF/	8r	sf	.	.	.
!	!	!LO:DY:rj	!	!	!
8r	8a 8f 8c/	sf	8a/	Tę-	.
=43	=43	=43	=43	=43	=43
!	!	!	!LO:TX:a:i:t=rall&colon;	!	!
8D 8DD/	8r	.	(8b/L	-skno-	.
8r	8b 8f 8d/	.	8f/J)	.	.
8E 8EE/	8r	.	8e/	-tę	.
8r	8g#X 8e 8d 8B/	.	8g#X/	i	.
=44	=44	=44	=44	=44	=44
!	!	!	!LO:TX:a:i:t=a tempo	!	!
4A 4AA\	4a 4e 4c/	.	4a/	łzy.	.
.	(8qdd#X/	.	.	.	.
4r	[4ee\)	.	4r	.	.
.	.	f	.	.	.
=45	=45	=45	=45	=45	=45
8E\L	8ee\L]	.	2r	.	.
8dJ 8B 8G#X\	(16dd#X\L	.	.	.	.
.	16ee\JJ	.	.	.	.
*rep	*	*	*	*	*
8E\L	16ff\LL	.	.	.	.
.	16ee\	.	.	.	.
8dJ 8B 8G#\	16dd#\	.	.	.	.
.	16b\JJ)	.	.	.	.
*Xrep	*	*	*	*	*
=46	=46	=46	=46	=46	=46
(8qAA/	.	.	.	.	.
8A\L)	8cc'\L	.	2r	.	.
8G'\	8b'\	.	.	.	.
8F'\	8a'\	.	.	.	.
8D'\J	8bJ 8f'\	.	.	.	.
=47	=47	=47	=47	=47	=47
*^	*	*	*	*	*
!	!	!	!LO:HP:a	!	!	!
4E/	8E\L	8e'/L	<	2r	.	.
.	8cJ 8A\	8a'/J	.	.	.	.
4E/	8E\L	(<8.cc/L	.	.	.	.
!	!	!	!LO:HP:a	!	!	!
.	.	.	[ >	.	.	.
.	8dJ 8G#X\	.	.	.	.	.
.	.	16b/Jk	]]	.	.	.
*v	*v	*	*	*	*	*
=48	=48	=48	=48	=48	=48
4.c 4.A\	(4a\)	<	2r	.	.
.	8aa\)	[[	.	.	.
8r	8r	.	.	.	.
==	==	==	==	==	==
*-	*-	*-	*-	*-	*-
!!!system-decoration: <s1>{(s2,s3)}
!!!RDF**kern: > = above
!!!RDF**kern: < = below
!!!RDF**kern: | = vertical stroke
!!!ENC: Andrzej Kubiczek
!!!END: 2021-06-06
!!!ENC: Mateusz Solarz
!!!END: 2021-05-20
!!!YEC: Copyright 2022 Narodowy Instytut Fryderyka Chopina (https://polishscores.org)
!!!YEM: Licence CC BY 4.0 (https://creativecommons.org/licenses/by/4.0)
